X:1
T:Ariel -- Hornpipe
Z:Bob Puckette <bpuckette:msn.com> 2003-3-10
R:hornpipe
B:Cole's 1000 Fiddle Tunes
M:2/4
L:1/16
K:A
(uEC)|A,CEA .c2(BA)|BEGB .d2(cB)|cA"4"eA aecA|BcdB "4"AGFE|
A,CEA .c2(BA)|BEGB .d2(cB)|Acea gfdB|A2c2A2:|
|:((3uefg)|aece .a2(ga)|fdBd .f2(ed)|cA"4"eA aecA|BcdB AGFE|
aece .a2(ga)|fdBd .f2(ed)|Acea Begb|gefg a2:|
